/* XPM */
static char *de1ed2bdf1b843b3bb67912f8c3dbc9eqBV4JtVVKc5U9azb[] = {
/* columns rows colors chars-per-pixel */
"64 64 181 2 ",
"   c #322B27",
".  c #352F2C",
"X  c #36332D",
"o  c #3A322E",
"O  c #3D3632",
"+  c #3D3A36",
"@  c #3F3C39",
"#  c #423A35",
"$  c #443D39",
"%  c #483E3B",
"&  c #434137",
"*  c #45403C",
"=  c #4B423D",
"-  c #50483D",
";  c #474342",
":  c #4D4541",
">  c #4D4844",
",  c #4E4C49",
"<  c #514742",
"1  c #544B45",
"2  c #5A4E47",
"3  c #554E4A",
"4  c #594F4A",
"5  c #515046",
"6  c #585047",
"7  c #56514D",
"8  c #5C534C",
"9  c #565352",
"0  c #5D5652",
"q  c #5D5955",
"w  c #5E5C59",
"e  c #61554E",
"r  c #62584D",
"t  c #625652",
"y  c #645B54",
"u  c #695E55",
"i  c #645D59",
"p  c #6A5F5A",
"a  c #6A6256",
"s  c #64615D",
"d  c #6C625B",
"f  c #72665D",
"g  c #74695F",
"h  c #666462",
"j  c #6B6562",
"k  c #6C6A65",
"l  c #6D6B69",
"z  c #716661",
"x  c #746A64",
"c  c #796E65",
"v  c #746E6A",
"b  c #796E69",
"n  c #6C726E",
"m  c #777166",
"M  c #7D7166",
"N  c #74716D",
"B  c #7C726B",
"V  c #7F786D",
"C  c #767471",
"Z  c #7B7573",
"A  c #7D7975",
"S  c #7C7C7B",
"D  c #827166",
"F  c #82756D",
"G  c #84786E",
"H  c #837771",
"J  c #847B74",
"K  c #8A7D74",
"L  c #837E79",
"P  c #927E78",
"I  c #8B8176",
"U  c #85827D",
"Y  c #8C837C",
"T  c #8E8C7E",
"R  c #948176",
"E  c #998576",
"W  c #92857C",
"Q  c #99877D",
"!  c #94897E",
"~  c #9C8B7E",
"^  c #A08D7F",
"/  c #A1907F",
"(  c #868380",
")  c #8B8681",
"_  c #8D8984",
"`  c #8F8E89",
"'  c #918780",
"]  c #948B83",
"[  c #9B8D84",
"{  c #938E89",
"}  c #998E89",
"|  c #969185",
" . c #9C9186",
".. c #95928C",
"X. c #9C938B",
"o. c #9F9D8E",
"O. c #9B9691",
"+. c #9D9A94",
"@. c #9F9E9B",
"#. c #A18F85",
"$. c #A29285",
"%. c #A89284",
"&. c #A39985",
"*. c #A2968B",
"=. c #AD9788",
"-. c #A4998D",
";. c #AA9C8D",
":. c #B19C8B",
">. c #A19392",
",. c #A49D95",
"<. c #AA9D93",
"1. c #A39E99",
"2. c #AA9F98",
"3. c #BEA28B",
"4. c #ACA195",
"5. c #A6A19B",
"6. c #ABA49C",
"7. c #AFA89F",
"8. c #B2A493",
"9. c #B1A69B",
"0. c #B4A99D",
"q. c #B8AD9E",
"w. c #ABA6A0",
"e. c #ADA9A2",
"r. c #B4ACA2",
"t. c #B9AEA5",
"y. c #BAAEA2",
"u. c #B3AFA8",
"i. c #B6B0A7",
"p. c #B5B1A7",
"a. c #BDB1A3",
"s. c #B8B0A6",
"d. c #BFB3A6",
"f. c #BEB3A4",
"g. c #BDB2A5",
"h. c #BEBAA7",
"j. c #B4B1AA",
"k. c #B6B2AA",
"l. c #BFB4A9",
"z. c #BBB4AA",
"x. c #BBB4B1",
"c. c #BFBBB3",
"v. c #C0B3A5",
"b. c #C2B5A7",
"n. c #C1B4A6",
"m. c #C2B6A9",
"M. c #C3B9AB",
"N. c #C4B9AA",
"B. c #C4B8AA",
"V. c #C6BAAB",
"C. c #C3B8AD",
"Z. c #C7BBAF",
"A. c #C5B9AB",
"S. c #C8BCAD",
"D. c #C8BCAD",
"F. c #C6B9B2",
"G. c #C7BDB0",
"H. c #CBBFB0",
"J. c #CABEB1",
"K. c #CDC0AC",
"L. c #CEC3B6",
"P. c #CFC5B7",
"I. c #CDC3B3",
"U. c #CDC3B8",
"Y. c #CEC5B9",
"T. c #D1C5B5",
"R. c #D1C7B5",
"E. c #D1C5B4",
"W. c #D3C7B9",
"Q. c #D2C7BA",
"!. c #D2C8B8",
"~. c #D4CABB",
"^. c #D4C9BA",
"/. c #D9CDBD",
"(. c #DDD4BF",
"). c #C4C1C0",
"_. c #DCD1C2",
"`. c #E3D8C7",
"'. c #E1D6CA",
"]. c #E3D9CA",
"[. c #EDE6D3",
/* pixels */
"N 1 0 U { L 5.U { 7 = d K F t < < D D #.u z = s h _ 6.+., + B + q j _ v O.O.+.+.U ,.1.e.r.% ..0.y.B.r.3 4.g.B.B.L.: N ) X._ ) ) ",
"Z y ..X.6.w.j.6.5...N 7 : = < < % 4 6 u u I ! + 9 s Z U { i Y c d # N j ..> L N 8 s s s q $ 9.v.n.B.8 0 s.l.B.B.6.d * 9 l C Z U ",
": = Z L O.6.w.5.6.6._ h = 3 8 Y d 1 1 3 8 8 8 % , w w h k i d -.I e = = [ 0.q.I O 0.0.d 8 < 0.q.q.y.t ' >.y.L.g.y.z d J x M [ & ",
"1 _ X.6.A O.6.,.w.i.6.e.4 q 4.9.B.3 : U.T.b u y X.e.O.; q q y W  .d 8 z X.;.*.d ] C.J.`.4 # : y d d # 1 J 6.*.F.a.M X.y.C.I.Q.&.",
": _ { ..6.I.A C O.6.6.e.# x Z B N < X.4.L.^.p < 1.5.e.6.j # c I *.d g d B Z J g l.D.K.!.d W [ *.4. .u 8 u x 8 x Y 8 ,.r.D.J.T.0.",
"= U ..1.e.7.r.N ..6.5.,.1 1 N j y # j X.g.I.L.* _ ,.2.O...% B '  .! d ] f f 3 8 4.D.D.J.2 0.9.m.B.n.u d Y -.X.*.y < 4.0.y.D._.a.",
"% h { { 6.6.7.h ..,.,.4 3 Y | 0.8 : < J 6.X.Z # ) { 2.O...1 3 y y 8 J ' V u O B s.s.m.-.% 0.n.B.m.B.1 J  .} X.[ J : *.r.g.B.B.U.",
": , _ _ >.2.,.1 9 q u < 6.y.y.^.J.= 1 3 b v * > 1 ) ) U A t < = 1 4 Y ] c g O d [ 6.q.B 8 a.C.G.n.B.3 J [ [ [ [ g * 6 <.y.9.g.c ",
"3 # * 7 q 9 9 m c p t O 6.m.B.I.!.T 4 6 4 8 u t g d = 8 8 4 8 8 K g d M d d y 8 y x x i % g M K J u y z K Y Y I d % # u d [ b 1 ",
"[ W # 6 ! 4.g.r.B.[.s O 2.C.^.(.Q.x = 4 d 6.z.+.6.s.N J w e < z G W d g g y 0 { 2.r.z.6.y f d p F W 4.<.f p y u c m Y L ..< M W ",
"K M 1 F 4.C.s.r.D.I.g.# 3 x N N b : e.Z +.i.r.U 5.c.r.+.n d *.a.B.J.].d f % 6.6.e.1.e.r.6.f Y X.6.y.b.L.I.y U r.z.w...6.O.< 1 d ",
"4 0 < X.g.G.B.B.B.B.4.y e 8 u t r y { z.U 1.6.5.e.U O.k.N < W n.B.L._.[ p x 6.e.e.e.w.r.X.# ,.e.2.4.0.b.n.= ,.u.j.z.z.O.).8 < 4 ",
"a : X *.r.G.0.D.D.J.T.! e Y } [ J y 5.5.j.6.{ X...O.,.6.) < J g.B.D.I.J 6 5 6.6.6.9.+...+.% 6.r.r.X.r.g.y.= ..,.O.6.i.z.e.L 6 u ",
"K 4 = X.g.r.r.B.I.I._.d d L Y X.B y ..X.5.A C N A U 1.O.Z X B B.g.B.I.-.e 1 ..6.e...e.e.j.= 0.0.r.r.y.y.a.$ ) +.+.` ..6.r.J 8 d ",
"8 3 # d B *.4.X.x -.*.t = b b Z B y L C N @ h ; * l l k y : b 0.B.C.} Z t $ ....A v ..) { . p 6.0.y.y.y.y.% j Z v l N Z L > < x ",
"4 8 1 3 1 y p d 3 4 d = 1 W $.%.W u 1 * # 1 < 3 1 1 8 2 g < 1 x b N N 7 u 8 + + $ O @ @ + : # B -.X._ { r.3 z d d d 8 = < < 1 p ",
"e.5.d B j s > = % : = 3 3 E 3.:.8.3 8 8 G ! #.G 3 [ ~ W d 4 : X 7 7 9 y t J <.4.0.h. .6 1 Z J L Z j 3 w w i J [ -. .Y y z 7.u.s.",
"5.w.,.r.j.1.u.$ U [ K u 4 G F K ] 6 < F [ #.$.E x d ~ ;.~ d ..O...j.e.,.* X.9.B.B.D.U.u N ,.6.i.+.+.e.x.$ x K 3 I J B t ..O.1.7.",
"j.e.+.6.r.r.r.# L L L x : 6 8 0 d 4 % W [ ] ] p D K f F ' : O.6.u.C j.{ :  .y.g.C.Z.q.y U ..Y r.r.e...5.0 M -.*.4.9.d { O...O...",
"5.1.6.6.+.6.U o t L J b 3 3 x *.x < < e V W t [ $.=.Y K z = s O.1...A k % ! B.I.!.!.B d i _ U X.6.w.O.e.x K X.*.*.-.< _ _ { 1.+.",
"h ) A X.C C N 1 z b L d < K Y ] ! t = t y B u B x G Y z x : _ { O.v N i # y d x Z N v 4 i ..7.) X.5.O.+.# *.K I *.B O U _ _ X.L ",
", > 3 > > > ; : e I y < # K z Y 4 8 6 = 6 4 1 8 y d d y u 8 $ N k H v 8 < t x u t B F 1 < L ....{ { _ i < Y ' ] ] K : s h k L s ",
"3 u u H 1 8 e 4 i y y d % x M B 6 z O.,.5.6.6.d u d d f f d d z g f u g a 8 8 3 3 2 2 8 8 < 8 4 = 2 1 f f x c d  .c u e e 4 1 < ",
"f W [ [ I u 4 y { 2.j.U 8 > < : : j { U X.5.6.5.i 3 g.a.g.I._.c *.-.8.g c x c c c u 6.l.B./.y.d K  .X.X.Y g q J X.4.M ! F c f # ",
"K #.#.W [ I 2 3 +.6.u.e...0 d 4 3 N ) 5.u.1.+.z.3  .r.C.0.I._.Y W K I M Y [  .-.-.t r.S.g.B.[ F  .X.X.X.X.X.t J ' K I K ] M < 1 ",
"d Y W [ [ f = i ..,.5.1.} d 1...> Z L _ { +.{ O.3 2.g.m.D.D.D.x F  .*.-.X.Y X. .[ = ,.S.Z.B.2.V X.<.X.X.X.[ 3 J ' ) X.[ B ' W < ",
"* K ~ #.x t $ d ) O.6.6.e.e.U { 3 s l C _ _ ( ( : 2.l.B.s.J.T.j Y Y *.x ' z J [ G * s.9.B.B.-.F [ -.X.<.*.W 6 i ' Y B  .[ t 6 # ",
"O f P K x 0 = : ) ..X.e.e.e.9 h j i * % > , > > K 7.g.B.B.D.0.8 Y B [ x c H z J [ . { m.J.B.m M ' *.Z } ] Z # z ) U V Y X.J 3 # ",
"N : < - < Z 3 % 9 ) ....+...: X.X.U Z t M d u * G l.B.D.J.g.J z c ! B 6.9.r.*.I W # < y d V B f ] [ [ X.X.v : q N N k l U Z ..L ",
"_ Z # ' r.g.-.= # j U ) _ j { ..O.+.) s u u u 3 % x F X.' Z t [ X.u % h Y Y F }  .! ! M d 1 = = J Y K J t t X.d $ O > L U @.{ A ",
"U L $ J y.y.Q.3 # c t s 0 > L X.6.O.,.U + 3 3 t 1 # % % = < I  .b W 0.4.# y y x ]  . .*.*.-.d c K K c u e 9.0.g./.0.+ 9 k C U U ",
"U v % Y r.y.B.r.# *.9.Q.'.+ ) X.2.6.5.6.3 4 F $.~ [ Q :.f 8 ' x K { s.a.' 4 t # j _ *.*.H y b  .X.[ 4.W 4 0.B.B.D.B.-.@ 9 s l Z ",
"t h $ ' 4.X.B.r.= F | g.B.& q U 2.2.2._ y * [ ~ K ^ =.:.[ 6 y t ' 9.q.a.J.y $.4.y.t B W [ 4 -.9.Y ] ;.[ 3 0.X.B.J.C.^.W = % % q ",
"c 8 # 4 -.2.C.I.t 7 x 2.K F # C { X.2.O.q 3 Q [ [ =.=.=.~ 3 K * x 4.q.4.I 2 *.-.4.Y u 1 y 3 x 4.2.0.M 6 # ! g.B.Z.Z.q.<.< c M c ",
"G g u < } X.q._.-.X * x A d 4 : U } ..l q 4 F W K Q #.[ ] 8 M W < 1 6 0 X : *.*.;.4.X.[ : = $ s x Y z 3 * H W m.<.0.4.u 1 g M F ",
"Y G M = x f 0.m.W 8 8 # z 9.].1 O * + d t 3 % y y u d c M 6 4 c d r u d d % *.*.*.X.X.y L 1.v N 8 $ % 1 4. .* 4 p N J 4 = y d F ",
"9 s 8 8 $ 0 y d < J J ] u.g.L.3 8 K  .[ 4.] 3 X = 1 : 4 8 4 = u u d d g g < j K *.M 7 } w.k.u.5.1.6.8 V 0.6.y.L.Y < * < 1 * O 9 ",
"9 X.y.g.l.} d 3 x y.g.y.m.v.B.B 6 4.4.6.g.J.!.B.-.t _ 1.z.z.N k 2.e.u.u d 3 # 1 d 4 Z ..X.5.1.L X.2.x W r.r.a.F.Z.U b ..` A ) j ",
"5.6.r.g.g.C.F 4 J 6.*.r.0.g.g.B < 9.l.r.B.g.Z.D.B.8 ) 6.e.z.j _ ,.1.6.X.8 [ -.Y < % Z o.O.w.,.r.U b 7 J 2.r.l.m.I.| j U e.` A ..",
" .y.C.n.C.s.V o d Y 6.l.r.s.B.n.X 2.m.B.g.v.I.T.4.4 ..L @.@.k Z ) ..x.` 8 W [ b 4 < w U ..1.+.+.X.O.% F 0.r.y.g.g.Y w U ) ` J L ",
"B W 0.s.m.C.4 # = y p z *.Q.U.Y 4 j x 4.9.J N b b O _ O.A e.) ) O.6.6.{ % = < t u e O 9 l 5...1.2.N 8 4.y.4.r.y.m.Y * j Z A ) _ ",
"y z j x B z 1 < # 4 y J } b >.d 8 j z p V N y j 3 % C ( +.) ..v Z ) _ C * p ! *.*.<.X + + O ; ; 7 4 8 V I X.>.0.J.b = * > w h Z ",
"p 8 d 8 = : 1 7 J W 1 1 8 = % J J Z 4 = N p 8 6 y 1 l s l l X X O $ , > # *.*.*.J B < m -.X.y.J.L.G % = % b ] g.r.z M R E # : k ",
"m.m.B.J.e 1 * 6.r.z.b 4 4 i { X...+.d 6 4 1 t d B 1 % X O h v U K Z B y # ! K -.] y 1 ] { X.Y X.4.*.% 7 4 8 : 8 J $ c H K x % 2.",
"g.B.D.g.n.< 8 X.6.4.B.= X Z L Z C { ) * < F [  .;.[ B 8 : U U 1.+.+.1._ $ K 8.9.[ * N Y X.X.-.X.>.Y X k +..._ J K < y p u d 8 O.",
"B.m.z.l.2.d y J 6.l.m.# w v X.5.5.N A # u W Q [  .*.' 4 8 ) U { ..2.6._ # z I *.V * N K [ X.X.-.} J X Z _ 6.{ J Y b % : 4 < O >.",
"9.g.g.C.B.0 % j } 6.0.% k ) { ..1.{ s # y f [  .[ -._ 7 0 k Z J ..O...3 W F V ! x O Z Z i j x v Z A O C A A O._ U J y t 1 < # V ",
"B [ -.*.X.6 O % Y [ K q k _ { X._ L > X 6 u M G [ { ' d : L A C C C h ; L Y ] U k O v h q 7 h Z A A # w l A A { L > Y Y 4 z = d ",
"j x v v x 3 : = d 8 = O N L { O.O.L y : : = y y : u d y @ l Z l N w q 8 1 8 1 = % # > 9 : 3 X ; 3 3 % 3 q j s i 8 # J J < : 3 % ",
"<.= % = @ N Y d O % = 3 w O.,.1.) l : K  .W  .r : = % < < % + + ; , + -.8.$.;.p !  .K 3 4 X.4.a.I.E.Z.L < 7 J M M K # 4 < n.m.g.",
"4.<.t 1 h S ..2.6.0.x N k 9 ` ....k y [ [ $.$.[ c 8  .U.L.L.B.X.x < B ] *.;.-.[ *.*.<.b # 6.0.g.m.B.C.I.4 t ' [ Y [ [ z   ' -.X.",
"L t < : _ ..,.) O.X.h q C _ L w h 3 B x K ] [ b i c 0.s.B.D.C.^.-.: K Y $.<.[ F ] -.<.b # 5.r.m.B.B.B.L.: 1 J [ [ Y K x X b y.} ",
"X.q.3 % _ { X.2.X...q 8 j J A v * O 8 y p B B z < d 2.g.g.v.5.T...< 4 Y &.H F F B *.X.: h 6.r.L.D.B.B.T.: 4 N ) K X.] M # x [  .",
") } x + l } ..X...( q 8 s N Z k < Y [ I.0.X.t 8 < p 6.0.C.m.n.L.*.= Y W [ M *. . .W B < 7 x X.z.G.I./._.B 3 N [ K B ' } ' = J J ",
"B U d < 7 k x l k 4 < z ) ) 3 k 8 4.r.B.0.G.2.t = j 2.r.6.B.L./.Y = ' ' ' z I Y I [  .K * k B H J J A A z = v Y U z N N B . x x ",
"* : 1 y b k s h b 3 : Y -.6.6.: b >.0.0.r.0.c x < 0 z F >.>.N j j 8 Z B x p d [  .z c 2 < * l b A A A A 8 1 % h j d > < 4 < O 1 ",
"$.1 3 _ O.6.,...,.: : J U J K # b Y 2.X.x k j j 1 o 8 % % A J v 4 8 8 8 ' X.4 x x J Y ! K 8 % : 0 t 8 M [  .&.c = % # K / ^ %.%.",
"F 8 d ) { 5.7.e.5.s 1 $ > 7 1 = 1 4 x j 8 : < * 4 4 % = # # H  .*.9.Y *.8 i 8 < 8 * = b 8.8.d 1 4 f 4 *.-.-.*.;.X.x < W Q Q W D ",
"g 4 3 _ ,.6.6.6.u.: Y 2.6.,.z ] B = > j x X...{ ..,.z.8 X Y y.m.m.B.C.I.C.I d 6 # x ! -.= 2.K X.;.M 4 X.-.;.*.J t 6 : F ~ P D p ",
"t X * U ` O.5.w.L & x B 6.6.6.9.X.3 C { _ 2.O.....X.1.A o W n.r.g.B.C.^.J.! p d O Z )  .$.< d }  .] 3 I d Y 8.d 0 4 $ i d p u u ",
"1 1 + N { _ ) U U 3 > y x X.Y -.6.y 3 ( O.1.6.2.6.O.v ` X B g.4.y.v.m.v.L.h x -.O w J Y Y  .3 b Y ] = Y X.<.-.M c 4 = * * O < # ",
"' d * L ,.5.5.e.< 8 1 d K = 1 Y Y 8 : , U { X.2.X.O.O.x O Z r.q.,.a.n.9.r.d b ;.3 + d Z B ) W x : Z < 4 K Y ;.z *.z y 6.6.X.O...",
"@.U $ N { 6.z.z.6 6 0 ] X.*.<.= * t u : O Z C _ { { _ 0 8 % b 6.r.a.X.d d 1 V t y < . X q 1 = < t 4 3 % % = < 7 8 4 { 5.6.6.1.+.",
"L { = l v v Z L t * i F Y K W 8 = M Y #.y ; ; > 4 , > 4 d : % x 2.,.N 6 + ` ) ..Z k L ..5.= M y._._.<.0  .C.m.g < < N A U A ..U "
};
